!!!COM:	Johannes Ockeghem
!!!CDT:	~1425-1497/02/06
!!!OPR:	Missa L'homme arm&eacute;
!!!ONM:	2
!!!OTL:	Gloria
!!!AGN:	Mass; Gloria
!!!SCT:	Ock1008b
!!!SCA:	Ock1008b
!!!voices:	4
!!!voices-OPR:	4
**kern	**kern	**kern	**kern
*staff4	*staff3	*staff2	*staff1
*vox	*vox	*vox	*vox
*I"Bassus	*I"Tenor	*I"Altus	*I"Superius
*I'B	*I'T	*I'A	*I'S
*clefF4	*clefGv2	*clefGv2	*clefG2
*k[]	*k[]	*k[]	*k[]
*>A	*>A	*>A	*>A
*M3/1	*M3/1	*M3/1	*M3/1
*met(O)	*met(C.)	*met(O)	*met(O)
*	*rscale:1/2	*	*
!!primary-mensuration: met(O)
=1-	=1-	=1-	=1-
!!section: Et in terra pax
!!!OMD: Et in terra pax
1G	0G	0d	1g
1G	.	.	1g
1G	1G	1d	1g
=2	=2-	=2	=2
0.C	0c	1.e	1a
.	.	.	1g
.	.	2c\	.
.	1c	1e	1cc
=3	=3	=3	=3
1G	1B	1d	1dd
0c	0A	1c	1.ee
.	.	1r	.
.	.	.	4dd\
.	.	.	4cc\
=4	=4-	=4	=4
0d	0G	0g	1b
.	.	.	2cc\
.	.	.	2.dd\
1B	1r	1f	.
.	.	.	4cc\
.	.	.	2a/
=5	=5	=5	=5
!!linebreak:original
1c	0.r	1e	2g/
.	.	.	2cc\
0G	.	0d	2dd\
.	.	.	2.b\
.	.	.	4a/
.	.	.	2b\
=6	=6-	=6	=6
*M3/1	*	*	*
*met(3)	*	*	*
3C/	0.r	1c	1.cc
3F\	.	.	.
3G\	.	.	.
3%2A	.	2A/	.
.	.	1B	2b\
6G\	.	.	.
6F\	.	.	.
3G\	.	.	1g
3%2E	.	.	.
.	.	2c\	.
=7	=7	=7	=7
*M3/1	*	*	*
*met(O)	*	*	*
2.D\	1r	2.d\	2.f/
4E\	.	4c\	4g/
2F\	1d	2A/	2a/
2G\	.	2G/	2b-i\
2A\	1d	1D	2a/
2F\	.	.	[2dd\
=8	=8-	=8	=8
1B-i	1G	0.r	2dd\]
.	.	.	1g
4A\	1r	.	.
4G\	.	.	.
1.d	.	.	2a/
.	1r	.	2.b\
.	.	.	4g/
=9	=9	=9	=9
!!linebreak:original
2c\	0.r	1r	2a/
1A	.	.	2.cc\
.	.	1r	.
.	.	.	4b\
2c\	.	.	2.a/
1B-i	.	1d	.
.	.	.	8g/L
.	.	.	8f/J
.	.	.	2g/
=10	=10-	=10	=10
1A	1r	1e	0a
1F	1d	1f	.
1G	1d	2d\	2.b\
.	.	[2g\	.
.	.	.	4g/
=11	=11	=11	=11
1D	1d	4g\]	2b\
.	.	4f\	.
.	.	2f\	1a
2r	0c	2g\	.
2.F\	.	2.a\	2.f/
4E\	.	4g\	4g/
2C/	.	2g\	2e/
=12	=12-	=12	=12
1G	1B	2d\	1d
.	.	2.g\	.
1r	0A	.	1c
.	.	4f\	.
.	.	2g\	.
1F	.	2a\	1r
.	.	2f\	.
=13	=13	=13	=13
!!pagebreak:original
2.B-i\	0G	1.g	1d
4c\	.	.	.
4d\	.	.	1g
4e-i\	.	.	.
2.d\	.	4f\	.
.	.	4e\	.
.	1r	2d\	2f/
4B-i\	.	.	.
2c\	.	2e\	[2a/
=14	=14-	=14	=14
2d\	0.r	2f\	2a/]
2G\	.	1d	2.b\
2Bni\	.	.	.
.	.	.	4g/
2c\	.	2e\	1g
1A	.	1c	.
.	.	.	2f#i/
=15	=15	=15	=15
0G	1d	1r	1g
.	1d	1r	1r
1r	1d	1f	1b
=16	=16-	=16	=16
1B	0G	1.g	1dd
1B	.	.	1dd
.	.	4f\	.
.	.	4e\	.
1B	1r	1d	1dd
=17	=17	=17	=17
!!linebreak:original
1c	0g	1c	1ee
1G	.	1B	1.dd
[1c	1g	1e	.
.	.	.	2cc\
=18	=18-	=18	=18
1c]	0f	1c	1.cc
0d	.	1r	.
.	.	.	2a/
.	1f	1r	1b
=19	=19	=19	=19
1.c	0g	0e	1cc
.	.	.	1cc
2B\	.	.	.
1G	1g	1d	1b
=20	=20-	=20	=20
1r	0d	2f\	2a/
.	.	2g\	2.dd\
0d	.	1a	.
.	.	.	4cc\
.	.	.	2.a/
.	1r	1r	.
.	.	.	4g/
.	.	.	2f/
=21	=21	=21	=21
!!linebreak:original
0.c	0g	1r	1e
.	.	0e	1r
.	1g	.	1cc
=22	=22-	=22	=22
0.d	0f	1d	1b
.	.	0D	1.a
.	1f	.	.
.	.	.	4g/
.	.	.	4a/
=23	=23	=23	=23
0.G	0g	0d	0b
.	1g	1e	1b
=24	=24-	=24	=24
1r	0d	1f	1a
1r	.	0B-	1.dd
1d	1r	.	.
.	.	.	2cc\
=25	=25	=25	=25
0e	0.r	1A	1cc
.	.	0G	1.b
1d	.	.	.
.	.	.	2a/
=26	=26-	=26	=26
!!linebreak:original
1c	0r	1A	1a
0B	.	1d	2g/
.	.	.	2f/
.	1g	1r	1d
=27	=27	=27	=27
1.A	0a	1f	1.c
.	.	0e	.
4G\	.	.	2A/
4F\	.	.	.
2E\	1g	.	2B/
2C/	.	.	2c/
=28	=28-	=28	=28
2D\	1f	2d\	1A
1A	.	1c	.
.	0e	.	1r
2B\	.	2d\	.
1c	.	1A	1r
=29	=29	=29	=29
2F\	0d	1D	1r
4G\	.	.	.
4A\	.	.	.
4B-i\	.	2r	2r
4A\	.	.	.
4G\	.	2A/	2d/
4F\	.	.	.
2.E\	1r	2.G/	2.c/
4F\	.	4A/	4d/
=30	=30-	=30	=30
!!pagebreak:original
2G\	0.r	2B\	2e/
2.A\	.	2.c\	2.f/
4G\	.	4A/	4g/
2F\	.	1d	2a/
1E	.	.	2b\
.	.	2c\	2cc\
=31	=31	=31	=31
!	!	!	!LO:TX:Z=12:t=f# in VatS 35 only
1D	0.r	2.d\	2.f/
.	.	4e\	4g/
1r	.	2f\	2a/
.	.	2g\	2b\
1r	.	1a	2.cc\
.	.	.	4dd\
=32	=32-	=32	=32
1r	0.r	2g\	4ee\
.	.	.	8dd\L
.	.	.	8ee\J
.	.	1a	2.ff\
1r	.	.	.
.	.	.	4dd\
.	.	2f\	1dd
1A	.	1e	.
.	.	.	2cc#i\
=33	=33	=33	=33
1.B-	0.r	1.d	0.dd
4A\	.	4c\	.
4G\	.	4B\	.
2F\	.	2A/	.
[2G\	.	[2B-i\	.
=34	=34-	=34	=34
!!linebreak:original
4G\]	0.r	2B-\]	1r
4F\	.	.	.
2.D\	.	2A/	.
.	.	2B-i\	1r
4BB-/	.	.	.
2C/	.	2G/	.
1D	.	2.F#i/	1dd
.	.	4E/	.
=35	=35	=35	=35
0d	0G	1G	0b
.	.	0g	.
1B	1G	.	1dd
=36	=36-	=36	=36
1A	0c	1e	1cc
1F	.	0f	0a
1A	1c	.	.
=37	=37	=37	=37
1G	1B	1e	1r
0F	0A	1.d	1.a
.	.	4c\	2b\
.	.	4d\	.
=38	=38-	=38	=38
!!linebreak:original
2E\	0G	4e\	1cc
.	.	4f\	.
1C	.	4g\	.
.	.	4f\	.
.	.	4e\	2cc\
.	.	4d\	.
2D\	.	1d	2b\
1E	1r	.	1g
.	.	2c#i\	.
=39	=39	=39	=39
0D	1d	2d\	2.f/
.	.	2.A/	.
.	.	.	4g/
.	1d	.	2b-i\
.	.	4G/	.
.	.	2A/	1a
1r	1G	1B-i	.
.	.	.	2g/
=40	=40-	=40	=40
0.D	1r	0A	1a
.	1d	.	1r
.	1d	1r	1a
=41	=41	=41	=41
1BB-	1d	0f	1b-
0F	0c	.	1.a
.	.	1f	.
.	.	.	2g/
=42	=42-	=42	=42
!!linebreak:original
1G	1B	1d	1g
2.D\	0A	2.d\	2f/
.	.	.	1a
4C/	.	4e\	.
4D\	.	2.f\	.
4E\	.	.	.
4F\	.	.	2d/
4G\	.	8e\L	.
.	.	8d\J	.
=43	=43	=43	=43
1E	1G	2.c\	2.e/
.	.	4B\	4d/
1D	2.A/	2.d\	2.f/
.	4B\	4e\	4g/
2A\	2c\	4f\	4a/
.	.	8e\L	8g/L
.	.	8f\J	8a/J
[2G\	4B-i\	[2g\	[2b-i\
.	4c\	.	.
=44	=44-	=44	=44
2G\]	1d	2g\]	2b-\]
2.D\	.	2.f\	2.a/
.	2Bni\	.	.
4E\	.	4e\	4g/
2G\	2G/	2d\	1g
1D	1A	2.d\	.
.	.	.	2f#i/
.	.	4c\	.
=45	=45	=45	=45
!	!LO:N:vis=00	!	!
0.Gl	0.Gl	1d	0.gl
.	.	0dl	.
!!pagebreak:original
!!LO:LB:i:g=z
=46||	=46||	=46||	=46||
*>B	*>B	*>B	*>B
!!section: Qui tollis
!!!OMD: Qui tollis
*M2/1	*M2/1	*M2/1	*M2/1
*met(C|)	*met(C|.)	*met(C|)	*met(C|)
*	*rscale:1/2	*	*
!!primary-mensuration: met(C|)
!	!LO:TX:Z=10:X=-30:t=Cut-C dot mensuration	!	!
0G	0r	0r	0g
=47	=47-	=47	=47
1G	0r	0r	1d
1G	.	.	1d
=48	=48-	=48	=48
1E	0r	0r	1g
1E	.	.	1g
=49	=49	=49	=49
1F	0r	0r	2a/
.	.	.	2b\
1F	.	.	2cc\
.	.	.	2dd\
=50	=50-	=50	=50
1G	1r	0r	[0b
1r	[1G	.	.
=51	=51-	=51	=51
0r	1G]	0g	0b]
.	1G	.	.
=52	=52	=52	=52
!!linebreak:original
0r	0c	1g	0r
.	.	1g	.
=53	=53-	=53	=53
0r	1c	1e	0r
.	1B	1d	.
=54	=54-	=54	=54
0r	0A	0f	1.cc
.	.	.	4b\
.	.	.	4a/
=55	=55	=55	=55
0r	0G	2g\	1b
.	.	2f\	.
.	.	1d	1g
=56	=56-	=56	=56
1C	0r	1e	0cc
1F	.	1r	.
=57	=57-	=57	=57
1G	0r	1G	1b
[1A	.	1c	[1a
=58	=58	=58	=58
!!linebreak:original
2A\]	0r	1d	1a]
4G\	.	.	.
4F\	.	.	.
1E	.	[1e	1g
=59	=59-	=59	=59
1r	0r	2e\]	1cc
.	.	4d\	.
.	.	4c\	.
1G	.	1B	1dd
=60	=60-	=60	=60
1c	0r	1A	1.ee
1d	.	1G	.
.	.	.	4dd\
.	.	.	4cc\
=61	=61	=61	=61
1.e	0r	1r	1b
.	.	[1g	1cc
4d\	.	.	.
4c\	.	.	.
=62	=62-	=62	=62
1B	0r	0g_	1dd
1c	.	.	[1cc
=63	=63-	=63	=63
0d	0r	1g]	1cc]
.	.	1f	1b
=64	=64	=64	=64
!!linebreak:original
1.c	0r	0e	1.cc
2B\	.	.	2dd\
=65	=65-	=65	=65
[0G	0r	1r	0b
.	.	1d	.
=66	=66-	=66	=66
0G]	0r	1g	1d
.	.	1r	[1g
=67	=67	=67	=67
1r	0r	1c	2g/]
.	.	.	2a/
1G	.	1d	1b
=68	=68-	=68	=68
1A	0r	1c	1cc
1G	.	1d	[1b
=69	=69-	=69	=69
0A	0r	1r	1b]
.	.	1c	[1a
=70	=70	=70	=70
!!pagebreak:original
0B	0r	0d	2a/]
.	.	.	2f#i/
.	.	.	1g#i
=71	=71-	=71	=71
0A	0r	1f	[0a
.	.	1e	.
=72	=72-	=72	=72
0D	1r	1d	0a]
.	1d	[1f	.
=73	=73	=73	=73
0r	1d	1f]	0r
.	1G	1g	.
=74	=74-	=74	=74
0d	0r	1f	0r
.	.	[1a	.
=75	=75-	=75	=75
1c	0r	2a\]	0r
.	.	2g\	.
1B	.	1g	.
=76	=76	=76	=76
!!linebreak:original
0G	0r	1e	0r
.	.	[1d	.
=77	=77-	=77	=77
1.d	0r	1d]	0r
.	.	[1a	.
4c\	.	.	.
4d\	.	.	.
=78	=78-	=78	=78
1e	0r	2a\]	0r
.	.	2g\	.
[1d	.	1f	.
=79	=79	=79	=79
1d]	0r	0e	0r
1c#i	.	.	.
=80	=80-	=80	=80
0d	1r	0f	0r
.	1d	.	.
=81	=81-	=81	=81
0r	1d	1d	0r
.	1d	1f	.
=82	=82	=82	=82
!!linebreak:original
0r	[0c	1g	0r
.	.	[1a	.
=83	=83-	=83	=83
0r	1c]	2a\]	0r
.	.	2g\	.
.	1B	[1g	.
=84	=84-	=84	=84
0r	0A	1g]	0cc
.	.	1f#i	.
=85	=85	=85	=85
[0d	0G	0g	1.b
.	.	.	2cc\
=86	=86-	=86	=86
1d]	0r	1.f	1.dd
1B	.	.	.
.	.	2d\	4cc\
.	.	.	4b\
=87	=87-	=87	=87
1c	0r	1e	1a
1B	.	1d	[1g
=88	=88	=88	=88
!!linebreak:original
1.G	0r	0g	1g]
.	.	.	1b
2E\	.	.	.
=89	=89-	=89	=89
1F	1d	0r	1a
1G	1d	.	1g
=90	=90-	=90	=90
1D	0d	1f	1.dd
1G	.	[1g	.
.	.	.	2b\
=91	=91	=91	=91
1r	0G	2g\]	1.b
.	.	4f\	.
.	.	4e\	.
1B	.	1d	.
.	.	.	2g/
=92	=92-	=92	=92
2c\	0r	2e\	1a
1d	.	1f	.
.	.	.	1b
2B\	.	2g\	.
=93	=93-	=93	=93
1A	0r	2a\	1cc
.	.	2f\	.
1G	.	1g	1dd
=94	=94	=94	=94
!!pagebreak:original
0c	0g	1.e	1cc
.	.	.	[1ee
.	.	2c\	.
=95	=95-	=95	=95
1e	1g	1c	2ee\]
.	.	.	2cc\
1f	[1f	1r	[1cc
=96	=96-	=96	=96
0d	1f]	1d	1cc]
.	1f	1f	1b
=97	=97	=97	=97
1c	0g	1e	1cc
1B	.	[1d	1dd
=98	=98-	=98	=98
0G	1g	1d]	0b
.	[1d	1g	.
=99	=99-	=99	=99
0d	1d]	1f	1r
.	1r	[1d	1b
=100	=100	=100	=100
!!linebreak:original
1B	0g	1d]	0dd
[1G	.	1B	.
=101	=101-	=101	=101
1G]	1g	1G	1dd
1B	[1f	1d	1dd
=102	=102-	=102	=102
0A	1f]	1r	0cc
.	1f	1c	.
=103	=103	=103	=103
0G	0g	0d	0b
=104	=104-	=104	=104
0r	1e	1c	1g
.	[1d	1f	[1a
=105	=105-	=105	=105
[0F	1d]	1.a	1a]
.	1r	.	[1cc
.	.	2g\	.
=106	=106-	=106	=106
!!linebreak:original
1F]	0r	1f	2cc\]
.	.	.	2b\
[1c	.	[1e	1g
=107	=107-	=107	=107
1c]	0r	1e]	1a
1B	.	[1d	[1b
=108	=108	=108	=108
1G	0r	1d]	1b]
1A	.	1c	[1a
=109	=109-	=109	=109
0B	0r	1.d	1a]
.	.	.	1g
.	.	4c\	.
.	.	4B\	.
=110	=110-	=110	=110
0A	0r	0c	1f
.	.	.	[1e
=111	=111	=111	=111
1G	0r	1r	1e]
1F	.	1d	1d
=112	=112-	=112	=112
!!linebreak:original
0E	1r	0e	0c
.	1g	.	.
=113	=113-	=113	=113
0D	0a	1.f	0r
.	.	2d\	.
=114	=114	=114	=114
0r	1g	4e\	0r
.	.	4d\	.
.	.	4c\	.
.	.	4B\	.
.	1f	2A/	.
.	.	[2d\	.
=115	=115-	=115	=115
0r	0e	4d\]	0r
.	.	4c\	.
.	.	2d\	.
.	.	2e\	.
.	.	2c#i\	.
=116	=116-	=116	=116
*M3/1	*M3/1	*M3/1	*M3/1
*met(3)	*met()	*met(3)	*met(3)
!!primary-mensuration: met(3)
0D	0.d	0d	0.f
1E	.	1c	.
=117	=117	=117	=117
1F	0.r	1A	0d
0G	.	0B	.
.	.	.	1d
=118	=118-	=118	=118
!!pagebreak:original
0.C	0.r	0G	1.e
.	.	.	2f/
.	.	[1c	1g
=119	=119-	=119	=119
0.F	0.r	1c]	0a
.	.	0d	.
.	.	.	1a
=120	=120	=120	=120
*	*M3/1	*	*
*	*met(3)	*	*
1E	0.r	1c	1g
0D	.	1A	0f
.	.	1B	.
=121	=121-	=121	=121
0.C	0G	0c	0e
.	1G	1d	[1g
=122	=122-	=122	=122
0.r	0c	0.e	1g]
.	.	.	0a
.	1c	.	.
=123	=123	=123	=123
0.r	1B	1d	1g
.	0A	0f	1a
.	.	.	1cc
=124	=124-	=124	=124
!!linebreak:original
1r	0.G	0.g	0.b
1r	.	.	.
1G	.	.	.
=125	=125-	=125	=125
1.G	0.r	0.r	0dd
2A\	.	.	.
1B	.	.	1g
=126	=126	=126	=126
1c	0.r	0.r	1.g
0d	.	.	.
.	.	.	2a/
.	.	.	1b
=127	=127-	=127	=127
1.A	0.r	1r	1.cc
.	.	1r	.
4G\	.	.	4b\
4F\	.	.	4a/
1E	.	1c	1g
=128	=128-	=128	=128
1F	0.r	1.c	1a
0G	.	.	0b
.	.	2d\	.
.	.	1e	.
=129	=129	=129	=129
0F	0.r	0f	0a
1C	.	1e	1g
=130	=130-	=130	=130
!!linebreak:original
1F	0.r	1.d	1a
0G	.	.	0b
.	.	2c\	.
.	.	1B	.
=131	=131-	=131	=131
1A	0.r	1A	1.cc
1E	.	1G	.
.	.	.	1b
1F	.	[1A	.
.	.	.	2a/
=132	=132	=132	=132
1D	1d	1A]	0a
0G	1d	0B	.
.	1G	.	1g
=133	=133-	=133	=133
0D	1r	0.A	0f#i
.	1d	.	.
1F	1d	.	1a
=134	=134-	=134	=134
1G	1d	1r	1b
0A	0c	0e	1.cc
.	.	.	2b\
=135	=135	=135	=135
1G	1B	1e	1g
0F	0A	1.d	0a
.	.	2c\	.
=136	=136-	=136	=136
!!linebreak:original
1E	1G	1c	1e
0D	0d	1B	1f
.	.	1A	[1a
=137	=137-	=137	=137
0.C	1e	0c	1a]
.	1.e	.	1g
.	.	[1g	[1cc
.	2d\	.	.
=138	=138	=138	=138
0.E	1B	1g]	2cc\]
.	.	.	2b\
.	0c	0e	0g
=139	=139-	=139	=139
0D	0d	0f	1b
.	.	.	0a
[1E	1B	1e	.
=140	=140-	=140	=140
1E]	1G	1c	1.g
0D	0A	0d	.
.	.	.	2e/
.	.	.	1f#i
=141	=141	=141	=141
!	!LO:N:vis=00	!	!
0.Gl	0.Gl	0.dl	0.gl
*	*rscale:1	*	*
==	==	==	==
*-	*-	*-	*-
!!!RDF**kern: l=long note in original notation
!!!RDF**kern: i=editorial accidental
!!!RDF**kern: V=start of tuplet marker
!!!RDF**kern: Z=end of tuplet marker
!!!RDF**kern: %=rational rhythm
!!!rscale-alt: 1/2
!!!ENC:	Jesse Rodin; Victoria Chang 2012/03/01
!!!END:	2012/03/01/
!!!EED:	Jesse Rodin
!!!EEV:	2012/03/30/
!!!ONB:	Translated from MusicXML and edited on 2012/03/30/ by Craig Sapp
!!muse2ps: T^@{OPR}^u^@{ONM}{. }@{OTL}^C^@{COM}^i2I150v90,90,95,150c136
